Sources/FrostedUI/Resources/Icons.xcassets/diceSize12.imageset/dice-size-12.svg

<svg
  width="12"
  height="12"
  viewBox="0 0 12 12"
  fill="none"
  xmlns="http://www.w3.org/2000/svg"
  data-fui-icon="true"
>
  <path
    d="M2.28769 2.28769C1.97642 2.59896 1.80155 3.02113 1.80155 3.46133L1.80155 8.53867C1.80155 8.97887 1.97642 9.40104 2.28769 9.71231V9.71231C2.59896 10.0236 3.02113 10.1984 3.46132 10.1984H8.53867C8.97887 10.1984 9.40104 10.0236 9.71231 9.71231V9.71231C10.0236 9.40104 10.1984 8.97887 10.1984 8.53867L10.1984 3.46133C10.1984 3.02113 10.0236 2.59896 9.71231 2.28769V2.28769C9.40104 1.97642 8.97887 1.80155 8.53867 1.80155L3.46133 1.80155C3.02113 1.80155 2.59896 1.97642 2.28769 2.28769V2.28769Z"
    stroke="currentColor"
    stroke-width="1.5"
    stroke-linecap="round"
    stroke-linejoin="round"
  />
  <path
    d="M5.29289 3.87868C5.68341 4.2692 5.68341 4.90237 5.29289 5.29289 4.90237 5.68342 4.2692 5.68342 3.87868 5.29289 3.48815 4.90237 3.48815 4.2692 3.87868 3.87868 4.2692 3.48816 4.90237 3.48816 5.29289 3.87868zM3.87871 6.70711C4.26923 6.31658 4.9024 6.31658 5.29292 6.70711 5.68345 7.09763 5.68345 7.7308 5.29292 8.12132 4.9024 8.51184 4.26923 8.51184 3.87871 8.12132 3.48818 7.7308 3.48818 7.09763 3.87871 6.70711zM8.12132 6.70711C8.51184 7.09763 8.51184 7.7308 8.12132 8.12132 7.7308 8.51184 7.09763 8.51184 6.70711 8.12132 6.31658 7.7308 6.31658 7.09763 6.70711 6.70711 7.09763 6.31658 7.7308 6.31658 8.12132 6.70711zM6.70708 3.87868C7.0976 3.48816 7.73077 3.48816 8.12129 3.87868 8.51182 4.2692 8.51182 4.90237 8.12129 5.29289 7.73077 5.68342 7.0976 5.68342 6.70708 5.29289 6.31655 4.90237 6.31655 4.2692 6.70708 3.87868z"
    fill="currentColor"
  />
</svg>

<svg xmlns="http://www.w3.org/2000/svg" width="12" height="12" fill="none" data-fui-icon="true" viewBox="0 0 12 12"><path stroke="currentColor" stroke-linecap="round" stroke-linejoin="round" stroke-width="1.5" d="M2.288 2.288a1.66 1.66 0 0 0-.486 1.173V8.54c0 .44.174.862.486 1.173v0a1.66 1.66 0 0 0 1.173.486H8.54c.44 0 .862-.174 1.173-.486v0a1.66 1.66 0 0 0 .486-1.173V3.46c0-.44-.174-.862-.486-1.173v0a1.66 1.66 0 0 0-1.173-.486H3.46c-.44 0-.862.174-1.173.486"/><path fill="currentColor" d="M5.293 3.879a1 1 0 1 1-1.414 1.414 1 1 0 0 1 1.414-1.414M3.879 6.707a1 1 0 1 1 1.414 1.414 1 1 0 0 1-1.414-1.414m4.242 0a1 1 0 1 1-1.414 1.414 1 1 0 0 1 1.414-1.414M6.707 3.88a1 1 0 1 1 1.414 1.414 1 1 0 0 1-1.414-1.414"/></svg>
